packages/starksheet-webapp/src/components/Footer/twitter.svg

<svg width="18" height="14" viewBox="0 0 18 14" fill="none" xmlns="http://www.w3.org/2000/svg">
<g clip-path="url(#clip0_699_451)">
<g clip-path="url(#clip1_699_451)">
<path d="M17.2148 2.08796C16.6147 2.34874 15.9796 2.52056 15.3298 2.59796C16.0127 2.19809 16.5263 1.56282 16.7742 0.811295C16.1285 1.18882 15.4234 1.45372 14.6888 1.59463C14.3795 1.27047 14.0076 1.0126 13.5955 0.836676C13.1834 0.660757 12.7399 0.570467 12.2918 0.571295C10.4778 0.571295 9.00984 2.01796 9.00984 3.80129C9.00856 4.04935 9.03698 4.29666 9.09451 4.53796C7.79374 4.47698 6.52002 4.14515 5.35484 3.56371C4.18966 2.98227 3.15867 2.16401 2.32784 1.16129C2.03637 1.65267 1.88222 2.21331 1.88151 2.78463C1.88151 3.90463 2.46584 4.89463 3.34818 5.47463C2.82542 5.46222 2.31337 5.32386 1.85551 5.07129V5.11129C1.85551 6.67796 2.98884 7.98129 4.48884 8.27796C4.20677 8.35315 3.9161 8.39125 3.62418 8.39129C3.41704 8.39165 3.21037 8.37156 3.00718 8.33129C3.42418 9.61462 4.63784 10.548 6.07551 10.5746C4.9073 11.4749 3.47305 11.9615 1.99818 11.958C1.73638 11.9576 1.47483 11.942 1.21484 11.9113C2.71524 12.8694 4.45933 13.3761 6.23951 13.3713C12.2848 13.3713 15.5875 8.44796 15.5875 4.17796C15.5875 4.03796 15.5838 3.89796 15.5772 3.76129C16.2182 3.30531 16.7728 2.73866 17.2148 2.08796Z" fill="black"/>
</g>
</g>
<defs>
<clipPath id="clip0_699_451">
<rect width="17.0002" height="13.0002" fill="white" transform="translate(0.5 0.5)"/>
</clipPath>
<clipPath id="clip1_699_451">
<rect width="17" height="13" fill="white" transform="translate(0.5 0.5)"/>
</clipPath>
</defs>
</svg>

<svg xmlns="http://www.w3.org/2000/svg" width="18" height="14" fill="none" viewBox="0 0 18 14"><g clip-path="url(#a)"><g clip-path="url(#b)"><path fill="#000" d="M17.215 2.088c-.6.26-1.235.433-1.885.51A3.25 3.25 0 0 0 16.774.811a6.592 6.592 0 0 1-2.085.784A3.304 3.304 0 0 0 12.292.57C10.478.57 9.01 2.017 9.01 3.8a3.1 3.1 0 0 0 .085.737A9.357 9.357 0 0 1 2.328 1.16a3.19 3.19 0 0 0-.446 1.624c0 1.12.584 2.11 1.466 2.69a3.25 3.25 0 0 1-1.492-.404v.04c0 1.567 1.133 2.87 2.633 3.167a3.359 3.359 0 0 1-.865.113c-.207 0-.414-.02-.617-.06a3.28 3.28 0 0 0 3.069 2.244 6.654 6.654 0 0 1-4.861 1.336 9.29 9.29 0 0 0 5.025 1.46c6.045 0 9.348-4.923 9.348-9.193 0-.14-.004-.28-.01-.417a6.615 6.615 0 0 0 1.637-1.673Z"/></g></g><defs><clipPath id="a"><path fill="#fff" d="M.5.5h17v13H.5z"/></clipPath><clipPath id="b"><path fill="#fff" d="M.5.5h17v13H.5z"/></clipPath></defs></svg>
